src/assets/twitter.svg

<svg width="32" height="32" viewBox="0 0 32 32" fill="none" xmlns="http://www.w3.org/2000/svg">
<circle cx="16" cy="16" r="16" fill="#7CE0D6"/>
<path d="M25.792 12.9993C25.8198 13.1105 25.8337 13.291 25.8337 13.541C25.8337 15.0132 25.5559 16.4855 25.0003 17.9577C24.4448 19.4021 23.6531 20.7355 22.6253 21.9577C21.6253 23.1521 20.3198 24.1244 18.7087 24.8744C17.0975 25.6244 15.3198 25.9994 13.3753 25.9994C10.9309 25.9994 8.69477 25.3466 6.66699 24.041C6.97255 24.0688 7.31977 24.0827 7.70866 24.0827C9.73644 24.0827 11.5559 23.4577 13.167 22.2077C12.1948 22.2077 11.3337 21.9299 10.5837 21.3744C9.86144 20.791 9.36144 20.0688 9.08366 19.2077C9.36144 19.2355 9.62533 19.2494 9.87533 19.2494C10.2642 19.2494 10.6531 19.2077 11.042 19.1244C10.3753 18.9855 9.7781 18.7077 9.25033 18.291C8.72255 17.8743 8.30588 17.3743 8.00033 16.791C7.69477 16.1799 7.54199 15.5271 7.54199 14.8327V14.7493C8.1531 15.1105 8.80588 15.3049 9.50033 15.3327C8.19477 14.4438 7.54199 13.2216 7.54199 11.666C7.54199 10.8882 7.75033 10.1521 8.16699 9.45768C9.25033 10.8188 10.5698 11.9021 12.1253 12.7077C13.7087 13.5132 15.3892 13.9577 17.167 14.041C17.1114 13.7077 17.0837 13.3743 17.0837 13.041C17.0837 11.8466 17.5003 10.8188 18.3337 9.95768C19.1948 9.09657 20.2225 8.66602 21.417 8.66602C22.6948 8.66602 23.7642 9.12435 24.6253 10.041C25.6253 9.84657 26.5559 9.49935 27.417 8.99935C27.0837 10.0271 26.4448 10.8327 25.5003 11.416C26.3337 11.3049 27.167 11.0688 28.0003 10.7077C27.3892 11.5966 26.6531 12.3605 25.792 12.9993Z" fill="white"/>
</svg>

<svg width="32" height="32" fill="none" xmlns="http://www.w3.org/2000/svg"><circle cx="16" cy="16" r="16" fill="#7CE0D6"/><path d="M25.792 13c.028.11.042.291.042.541 0 1.472-.278 2.944-.834 4.417a13.98 13.98 0 01-2.375 4c-1 1.194-2.305 2.166-3.916 2.916-1.611.75-3.39 1.125-5.334 1.125-2.444 0-4.68-.652-6.708-1.958.306.028.653.042 1.042.042 2.027 0 3.847-.625 5.458-1.875-.972 0-1.833-.278-2.583-.834a4.52 4.52 0 01-1.5-2.166c.277.027.541.041.791.041.39 0 .778-.041 1.167-.125a4.25 4.25 0 01-1.792-.833 4.633 4.633 0 01-1.25-1.5 4.32 4.32 0 01-.458-1.958v-.084a4.118 4.118 0 001.958.584c-1.305-.89-1.958-2.111-1.958-3.667 0-.778.208-1.514.625-2.208a12.131 12.131 0 009 4.583 6.068 6.068 0 01-.083-1c0-1.194.416-2.222 1.25-3.083.86-.861 1.889-1.292 3.083-1.292 1.278 0 2.347.458 3.208 1.375 1-.194 1.93-.542 2.792-1.042-.333 1.028-.972 1.834-1.917 2.417a9.397 9.397 0 002.5-.708 9.615 9.615 0 01-2.208 2.291z" fill="#fff"/></svg>
